X:1
T:Elsas Procseeion to the Cathedral
T:                                       Elsa's Procession                                                           Arranged By Kyle Jacobson  
%%score 1 2 3
L:1/8
Q:1/4=80
M:4/4
K:Eb
V:1 bass nm="Trombone" snm="Tbn."
V:2 bass nm="Trombone" snm="Tbn."
V:3 bass nm="Trombone" snm="Tbn."
V:1
 E,4 F,2 A,>C | C4 B,3 B, | E4 B,2 A,>G, | G,4 F,3 z | G,4 A,2 B,>E | E4 E,3 E, | %6
 E,4{E,D,E,F,} A,2 G,>F, | E,4 D,4 | z6 E,2- | E,E, F,2 ^F,2 G,2 | A,6 A,2 | A,2 =A,2 B,2 =B,2 | %12
 C4 =E,4 | C2 _D2 =D2 E2- | E4 E2 E2- | E2 =E2 F3 _E | E4 E2 E2 | E2 =E2 F3 _E | _E4 _G2 _G2- | %19
 G- G4 !breath!F2 E | E2 D2 C3 B, | B,2 =A,2 _A,2 G,2 | B8 | G2 F2 E2 D2 | E E2 E2 E2 z/ E/ | %25
 E E2 E2 E2 E- | E E2 E2 D2 D- | D E2 F2 F2 F | !>!G,4 !>!G,3 !>!G, |!<(! E8-!<)! | E8- | E8 | %32
!fff! !fermata!E8 |] %33
V:2
 z8 | z8 | z8 | z8 | z8 | z8 | z8 | z7 B,, | E,2 D,2 =C,3 _C, | B,,4 E,3 E, | A,2 G,2 F,3 E, | %11
 E,4 D,3 D, | C2 B,2 A,3 G, | A,4 =B,3 C | _D2 C2 B,3 A, | A,4 G,2 B,2 | _D2 C2 B,3 A, | %17
 _D3 _D _D2 _D2 | C4 E4- | E- E4 !breath!E2 _E | G, G,2 G,2 G,2 G, | B,4- B,B,EG | D8 | B,4 F3 B, | %24
 B,4 z !>!B,,!>!E,!>!G, | C4 C3 E | C2 A,2 B,2 B,2 | B,2 =A,2 _A,3 F, | !>!E,4 E,3 E, | %29
!<(! G,8-!<)! | G,8- | G,8 |!fff! !fermata!G,8 |] %33
V:3
 z8 | z8 | z8 | z4 z B,,C,D, | E,4 F,2 G,2 | A,2 G,F, E,2 D,2 | C,4 A,,4 | B,,7 B,, | E,8 | %9
 E,7 E,- | E,8 | B,,8 | A,,4 C,4 | F,4 =B,,3 C, | _D,2 C,2 B,,3 A,, | A,,4 G,,2 B,,2 | _D6 _D2 | %17
 A,,4 G,,4 | G,2 F,2 E,3 _D, | _D,4 C,2 =B,,2 | B,,4 B,,2 z2 | E E2 E2 E2 E | B,2 =A,2 _A,3 G, | %23
 G,2 F,2 E,2 D,2 | E2 D2 C3 B, | A,2 G,2 F,2 E,2 | C2 A,2 B,4 | B,,4 B,,,4 | %28
 !>!E,,4 !>!E,,3 !>!E,, |!<(! B,,8-!<)! | B,,8- | B,,8 |!fff! !fermata!E,,8 |] %33

